app/assets/images/infinitacle.svg

<svg height="16" viewBox="0 0 30 16" width="30" xmlns="http://www.w3.org/2000/svg"><g fill="#020302"><path d="m16.5708527 6.44822836c2.0330225-2.54251267 4.3012633-3.87850957 6.8047224-4.00799071 2.5002489 0 5.9502403 1.63011192 5.9502403 5.70657943 0 3.83817492-2.0059852 7.85318292-7.4458626 7.85318292-2.9101319 0-5.7638701-1.7686199-7.4779765-3.4834935-3.7366886-3.73836074-5.42349905-9.16442821-8.73987074-9.16442821-2.11801705 0-3.72756793.80824536-4.82865264 2.42473607 1.25928092-3.18898826 3.54167295-4.94940221 6.84717609-5.28124183 3.74823109-.20778302 5.74083329 2.72612558 9.01937099 6.08768219 3.2785377 3.3615566 7.5197583 4.46597178 7.5197583 1.75983966 0-2.80331321-4.5506089-.94764558-5.4184713 0-.6614622-.43046266-1.4049404-1.06208467-2.2304343-1.89486602z"/><path d="m1.50486373 5.89673166c1.31002359 0 1.07998285 1.91213941-.23004073 1.91213941-1.31002359 0-1.07998285-1.91213941.23004073-1.91213941z"/><path d="m4.43490836 6.94339623c1.39052673 0 .92357663 2.14187875-.4669501 2.14187875s-.92357663-2.14187875.4669501-2.14187875z"/><path d="m3.50424864 4.28679245c1.31002359 0 1.10834765 1.71200265-.20167593 1.71200265-1.31002359 0-1.10834765-1.71200265.20167593-1.71200265z"/><path d="m17.0853078 3.80377358c.8396344 0 0 1.46894839-1.0970488 1.46894839-1.0970487 0 .2574144-1.46894839 1.0970488-1.46894839z"/><path d="m15.5721002 2.64866641c.5904335 0-.6979183 1.14915922-1.2007017 1.14915922-.5027833 0 .6102683-1.14915922 1.2007017-1.14915922z"/><path d="m18.1180088.66415094c.7889906 0-1.1070504 1.22360943-2.0646314 1.22360943s1.2756408-1.22360943 2.0646314-1.22360943z"/><path d="m19.3431499 1.87727564c.987036 0-.5928309 1.58950497-1.5798669 1.58950497s.592831-1.58950497 1.5798669-1.58950497z"/><path d="m20.8688995 0c1.3100236 0-.4386073.75611785-1.7486309.75611785-1.3100235 0 .4386073-.75611785 1.7486309-.75611785z"/><path d="m21.9593135.9097023c1.3100236 0 .0193671.78382241-1.2906565.78382241s-.0193671-.78382241 1.2906565-.78382241z"/><path d="m22.5901213.13994352c1.3100236 0 1.9571628.5.6471392.5s-1.9571628-.5-.6471392-.5z"/><path d="m24.352356.78490566c1.3100236 0 2.412488.83759103 1.2834429.83759103s-2.5934665-.83759103-1.2834429-.83759103z"/><path d="m26.5864708 1.72125147c.3854509 0 1.57414 1.64300296 1.1130516 1.64300296-.4610885 0-1.4985026-1.64300296-1.1130516-1.64300296z"/><path d="m6.24534919 5.49433962c1.31002359 0 1.1745134 1.67763856-.13551019 1.67763856-1.31002358 0-1.17451339-1.67763856.13551019-1.67763856z"/><path d="m5.96947416 3.86890867c1.31002359 0 1.15562587 1.09122077-.15439772 1.09122077-1.31002358 0-1.15562586-1.09122077.15439772-1.09122077z"/><path d="m7.56204229 5.07471428c.7337976 0 1.94469132.93618482 1.4914683.93618482-.45322303 0-2.2252659-.93618482-1.4914683-.93618482z"/><path d="m10.7412184 8.45304661c1.3348455 0 .2977097 1.98665819-.9348381 1.98665819-1.23254783 0-.39281251-1.98665819.9348381-1.98665819z"/><path d="m1.44173063 12.4377358c.67174517 0 2.73708791 2.3432099 1.6121995 2.3432099-1.12488842 0-2.28394467-2.3432099-1.6121995-2.3432099z"/><path d="m.64068343 8.57380133c.96166844 0 1.22828243 3.21899037.24902262 3.21899037-.9792598 0-1.21069107-3.21899037-.24902262-3.21899037z"/><path d="m3.18549747 9.35849057c1.05204875 0 1.37352679 2.33332723.20588059 2.33332723s-1.25792933-2.33332723-.20588059-2.33332723z"/><path d="m4.68169342 12.0150943c1.51072972 0 2.48306885 1.4689484.97233912 1.4689484-1.51072972 0-2.48306884-1.4689484-.97233912-1.4689484z"/><path d="m4.35460316 14.8844737c1.35531644-.3375175 3.97536361.3377045 2.66534002.6679253-1.31002358.3302208-4.02065646-.3304079-2.66534002-.6679253z"/><path d="m10.1184274 13.3100899c.7696447 0-1.02752725 1.6440472-1.97108935 1.6440472-.75045984 0 1.06488072-1.6440472 1.97108935-1.6440472z"/><path d="m8.88318024 10.9283019c1.31002356 0 .09761411 1.8931909-1.21240948 1.8931909-1.31002358 0-.09761411-1.8931909 1.21240948-1.8931909z"/><path d="m12.2697836 10.8679245c1.0267335 0-.4195086 1.9758755-1.3718419 1.9758755-.95233327 0 .3451084-1.9758755 1.3718419-1.9758755z"/></g></svg>

<svg width="30px" height="16px" viewBox="0 0 30 16" version="1.1" xmlns="http://www.w3.org/2000/svg" xmlns:xlink="http://www.w3.org/1999/xlink">
	<g id="infinitacle-reverse" fill="#020302">
	    <path d="M16.5708527,6.44822836 C18.6038752,3.90571569 20.872116,2.56971879 23.3755751,2.44023765 C25.875824,2.44023765 29.3258154,4.07034957 29.3258154,8.14681708 C29.3258154,11.984992 27.3198302,16 21.8799528,16 C18.9698209,16 16.1160827,14.2313801 14.4019763,12.5165065 C10.6652877,8.77814576 8.97847725,3.35207829 5.66210556,3.35207829 C3.54408851,3.35207829 1.93453763,4.16032365 0.833452922,5.77681436 C2.09273384,2.5878261 4.37512587,0.827412149 7.68062901,0.495572527 C11.4288601,0.287789508 13.4214623,3.22169811 16.7,6.58325472 C19.9785377,9.94481132 24.2197583,11.0492265 24.2197583,8.34309438 C24.2197583,5.53978117 19.6691494,7.3954488 18.801287,8.34309438 C18.1398248,7.91263172 17.3963466,7.28100971 16.5708527,6.44822836 Z" id="Path"></path>
	    <path d="M1.50486373,5.89673166 C2.81488732,5.89673166 2.58484658,7.80887107 1.274823,7.80887107 C-0.035200589,7.80887107 0.194840147,5.89673166 1.50486373,5.89673166 Z" id="Path-2"></path>
	    <path d="M4.43490836,6.94339623 C5.82543509,6.94339623 5.35848499,9.08527498 3.96795826,9.08527498 C2.57743153,9.08527498 3.04438163,6.94339623 4.43490836,6.94339623 Z" id="Path-2"></path>
	    <path d="M3.50424864,4.28679245 C4.81427223,4.28679245 4.61259629,5.9987951 3.30257271,5.9987951 C1.99254912,5.9987951 2.19422506,4.28679245 3.50424864,4.28679245 Z" id="Path-2"></path>
	    <path d="M17.0853078,3.80377358 C17.9249422,3.80377358 17.0853078,5.27272197 15.988259,5.27272197 C14.8912103,5.27272197 16.2456734,3.80377358 17.0853078,3.80377358 Z" id="Path-2"></path>
	    <path d="M15.5721002,2.64866641 C16.1625337,2.64866641 14.8741819,3.79782563 14.3713985,3.79782563 C13.8686152,3.79782563 14.9816668,2.64866641 15.5721002,2.64866641 Z" id="Path-2"></path>
	    <path d="M18.1180088,0.664150943 C18.9069994,0.664150943 17.0109584,1.88776037 16.0533774,1.88776037 C15.0957964,1.88776037 17.3290182,0.664150943 18.1180088,0.664150943 Z" id="Path-2"></path>
	    <path d="M19.3431499,1.87727564 C20.3301859,1.87727564 18.750319,3.46678061 17.763283,3.46678061 C16.776247,3.46678061 18.356114,1.87727564 19.3431499,1.87727564 Z" id="Path-2"></path>
	    <path d="M20.8688995,0 C22.1789231,0 20.4302922,0.756117849 19.1202686,0.756117849 C17.8102451,0.756117849 19.5588759,1.28706184e-16 20.8688995,0 Z" id="Path-2"></path>
	    <path d="M21.9593135,0.909702297 C23.2693371,0.909702297 21.9786806,1.69352471 20.668657,1.69352471 C19.3586334,1.69352471 20.6492899,0.909702297 21.9593135,0.909702297 Z" id="Path-2"></path>
	    <path d="M22.5901213,0.139943517 C23.9001449,0.139943517 24.5472841,0.639943517 23.2372605,0.639943517 C21.9272369,0.639943517 21.2800977,0.139943517 22.5901213,0.139943517 Z" id="Path-2"></path>
	    <path d="M24.352356,0.78490566 C25.6623796,0.78490566 26.764844,1.62249669 25.6357989,1.62249669 C24.5067538,1.62249669 23.0423324,0.78490566 24.352356,0.78490566 Z" id="Path-2"></path>
	    <path d="M26.5864708,1.72125147 C26.9719217,1.72125147 28.1606108,3.36425443 27.6995224,3.36425443 C27.2384339,3.36425443 26.2010198,1.72125147 26.5864708,1.72125147 Z" id="Path-2"></path>
	    <path d="M6.24534919,5.49433962 C7.55537278,5.49433962 7.41986259,7.17197818 6.109839,7.17197818 C4.79981542,7.17197818 4.93532561,5.49433962 6.24534919,5.49433962 Z" id="Path-2"></path>
	    <path d="M5.96947416,3.86890867 C7.27949775,3.86890867 7.12510003,4.96012944 5.81507644,4.96012944 C4.50505286,4.96012944 4.65945058,3.86890867 5.96947416,3.86890867 Z" id="Path-2"></path>
	    <path d="M7.56204229,5.07471428 C8.29583989,5.07471428 9.50673361,6.0108991 9.05351059,6.0108991 C8.60028756,6.0108991 6.82824469,5.07471428 7.56204229,5.07471428 Z" id="Path-2"></path>
	    <path d="M10.7412184,8.45304661 C12.0760639,8.45304661 11.0389281,10.4397048 9.8063803,10.4397048 C8.57383247,10.4397048 9.41356779,8.45304661 10.7412184,8.45304661 Z" id="Path-2"></path>
	    <path d="M1.44173063,12.4377358 C2.1134758,12.4377358 4.17881854,14.7809457 3.05393013,14.7809457 C1.92904171,14.7809457 0.769985459,12.4377358 1.44173063,12.4377358 Z" id="Path-2"></path>
	    <path d="M0.640683427,8.57380133 C1.60235187,8.57380133 1.86896586,11.7927917 0.889706053,11.7927917 C-0.089553754,11.7927917 -0.320985021,8.57380133 0.640683427,8.57380133 Z" id="Path-2"></path>
	    <path d="M3.18549747,9.35849057 C4.23754622,9.35849057 4.55902426,11.6918178 3.39137806,11.6918178 C2.22373186,11.6918178 2.13344873,9.35849057 3.18549747,9.35849057 Z" id="Path-2"></path>
	    <path d="M4.68169342,12.0150943 C6.19242314,12.0150943 7.16476227,13.4840427 5.65403254,13.4840427 C4.14330282,13.4840427 3.1709637,12.0150943 4.68169342,12.0150943 Z" id="Path-2"></path>
	    <path d="M4.35460316,14.8844737 C5.7099196,14.5469562 8.32996677,15.2221782 7.01994318,15.552399 C5.7099196,15.8826198 2.99928672,15.2219911 4.35460316,14.8844737 Z" id="Path-2"></path>
	    <path d="M10.1184274,13.3100899 C10.8880721,13.3100899 9.09090015,14.9541371 8.14733805,14.9541371 C7.39687821,14.9541371 9.21221877,13.3100899 10.1184274,13.3100899 Z" id="Path-2"></path>
	    <path d="M8.88318024,10.9283019 C10.1932038,10.9283019 8.98079435,12.8214928 7.67077076,12.8214928 C6.36074718,12.8214928 7.57315665,10.9283019 8.88318024,10.9283019 Z" id="Path-2"></path>
	    <path d="M12.2697836,10.8679245 C13.2965171,10.8679245 11.850275,12.8438 10.8979417,12.8438 C9.94560843,12.8438 11.2430501,10.8679245 12.2697836,10.8679245 Z" id="Path-2"></path>
	</g>
</svg>
